public/map.svg

<svg width="28" height="28" viewBox="0 0 28 28" fill="none" xmlns="http://www.w3.org/2000/svg">
<path d="M25.6667 10.5V17.5C25.6667 20.4167 25.0833 22.4583 23.7767 23.7767L16.3333 16.3333L25.3517 7.315C25.5617 8.23667 25.6667 9.28666 25.6667 10.5Z" stroke="white" stroke-width="1.5" stroke-linecap="round" stroke-linejoin="round"/>
<path d="M25.3517 7.31501L7.31499 25.3517C3.80332 24.5467 2.33334 22.12 2.33334 17.5V10.5C2.33334 4.66668 4.66667 2.33334 10.5 2.33334H17.5C22.12 2.33334 24.5467 3.80335 25.3517 7.31501Z" stroke="white" stroke-width="1.5" stroke-linecap="round" stroke-linejoin="round"/>
<path d="M23.7767 23.7767C22.4583 25.0833 20.4167 25.6667 17.5 25.6667H10.5C9.28667 25.6667 8.23665 25.5617 7.31499 25.3517L16.3333 16.3333L23.7767 23.7767Z" stroke="white" stroke-width="1.5" stroke-linecap="round" stroke-linejoin="round"/>
<path d="M7.27999 9.31C8.07332 5.89166 13.2067 5.89166 14 9.31C14.455 11.3167 13.195 13.02 12.0866 14.07C11.2816 14.84 10.01 14.84 9.19334 14.07C8.085 13.02 6.81332 11.3167 7.27999 9.31Z" stroke="white" stroke-width="1.5"/>
<path d="M10.6104 10.15H10.6209" stroke="white" stroke-width="2" stroke-linecap="round" stroke-linejoin="round"/>
</svg>

<svg width="28" height="28" fill="none" xmlns="http://www.w3.org/2000/svg"><path d="M25.667 10.5v7c0 2.917-.584 4.958-1.89 6.277l-7.444-7.444 9.019-9.018c.21.922.315 1.972.315 3.185Z" stroke="#fff" stroke-width="1.5" stroke-linecap="round" stroke-linejoin="round"/><path d="M25.352 7.315 7.315 25.352c-3.512-.805-4.982-3.232-4.982-7.852v-7c0-5.833 2.334-8.167 8.167-8.167h7c4.62 0 7.047 1.47 7.852 4.982Z" stroke="#fff" stroke-width="1.5" stroke-linecap="round" stroke-linejoin="round"/><path d="M23.777 23.777c-1.319 1.306-3.36 1.89-6.277 1.89h-7c-1.213 0-2.263-.105-3.185-.315l9.018-9.019 7.444 7.444Z" stroke="#fff" stroke-width="1.5" stroke-linecap="round" stroke-linejoin="round"/><path d="M7.28 9.31c.793-3.418 5.927-3.418 6.72 0 .455 2.007-.805 3.71-1.913 4.76a2.1 2.1 0 0 1-2.894 0c-1.108-1.05-2.38-2.753-1.913-4.76Z" stroke="#fff" stroke-width="1.5"/><path d="M10.61 10.15h.01" stroke="#fff" stroke-width="2" stroke-linecap="round" stroke-linejoin="round"/></svg>
